!!!COM: Gabriel Faure/
!!!CNT: Francais
!!!TXO: Francais
!!!OTL: "Avant que tu ne t'en ailles"
!!!LYR: Verlaine
!!!OPR: La bonne chanson
!!!OPS: Op. 61
!!!ONM: No. 6
!!!ENC: Emily Thomas
!!!YOR: CD Sheet Music French Art Songs, The Ultimate Collection
!!!YOR: CD Sheet Music, LLC 2003
!!!ODT: 1894/
!!NB: Vocal melody and text encoded.
**kern	**silbe
=0	=0
*clefG2	*
*k[b-e-a-d-g-]	*
*M3/4	*
*MM[Quasi Adagio]	*
2.r	.
=2	=2
4r	.
4r	.
{4dd-	{A-
=3	=3
4dd-	-vant
8cc-	que
8cc-	tu
8.b--	ne
16b--	t'en
=4	=4
4a-	ail-
4g-	-les
8.f-	pa^le
16f-	e/-
=5	=5
4.fn	-toi-
8g-	-le
8.a-	du
16a-	ma-
=6	=6
[2.a-	-tin
=7	=7
4a-_	|
8a-]}	|}
8r	.
4r	.
=8	=8
*k[f#c#g#]	*
*M2/4	*
*MM[Allegro moderato]	*
2r	.
=9	=9
4r	.
{8.e	{Mil-
16e	-le
=10	=10
8a	cail-
8a	-les
8.gn	chan-
16gn	-tent,
=11	=11
8.a	chan-
16a	-tent
8.ccn	dans
16ccn	le
=12	=12
[2ee	thym!
=13	=13
*M3/4	*
4ee_	|
8ee]}	|}
8r	.
4r	.
=14	=14
2.r	.
=15	=15
2.r	.
=16	=16
{4a-	{Tour-
6f-	-ne
12g-	de-
12a-	-vers
12g-	-le
12a-	po-
=17	=17
4b-	-e\-
4a-	-te
8.a-	dont
16a-	les
=18	=18
4.en	yeux
8en	sont
8.cc	pleins
16b-	d'a-
=19	=19
2.a-}	-mour}
=20	=20
2.r	.
=21	=21
*k[f#c#g#d#a#]	*
*M2/4	*
*MM[Allegro moderato]	*
2r	.
=22	=22
4r	.
8r	.
{16f#	{L'a-
16f#	-lou-
=23	=23
8.b	-et-
16b	-te
8an	monte
8an	au
=24	=24
8.b	ciel
16b	a-
8.ddn	-vec
16ddn	le
=25	=25
[2ff#	jour!
=26	=26
*M3/4	*
4ff#]}	|}
4r	.
4r	.
=27	=27
2.r	.
=28	=28
*MM[Adagio]	*
2.r	.
=29	=29
{4.an	{Tour-
8g#	-ne
8f#	ton
8dn	re-
=30	=30
8e#	-gard
8e#	que
4f#	noi-
8.g#	-e
16g#	l'au-
=31	=31
4a#	-ro-
8f#	-re
8g#	dans
8.a#	son
16b	a-
=32	=32
[2.cc#	-zur
=33	=33
4cc#_	|
8cc#]}	|}
8r	.
4r	.
=34	=34
*M2/4	*
*MM[Allegro moderato]	*
2r	.
=35	=35
4r	.
{8.b#	{Qu'el-
16b#	-le
=36	=36
2b#	joi-
=37	=37
4.g#	-e
8b#	par-
=38	=38
6cc#	-mi
12cc#	les
12cc#	champs
12an	de
12cc#	ble/
=39	=39
[2ee	mu^r
=40	=40
4ee_	|
8ee]}	|}
8r	.
=41	=41
2r	.
=42	=42
2r	.
=43	=43
*k[b-e-a-d-g-]	*
2r	.
=44	=44
2r	.
=45	=45
2r	.
=46	=46
{4.cc	{Et
8cc	fais
=47	=47
[2cc	lui-
=48	=48
8cc]	|
8a-	-re
8.b-	ma
16cc	pen-
=49	=49
4ee-	-se/-
4dd-}	-e}
=50	=50
8r	.
16r	.
{16an	{La\-
[4ee-	-bas
=51	=51
4ee-_	|
8ee-]}	|}
16r	.
{16cc-	{bien
=52	=52
2gg-	loin!
=53	=53
4.gg-	Oh!
8ff-	bien
=54	=54
[2cc	loin!
=55	=55
8cc]}	|}
8r	.
4r	.
=56	=56
2r	.
=57	=57
4r	.
{8.cc	{La
16cc	ro-
=58	=58
4cc	-se/-
8a-}	-e,}
16r	.
{16a-	{gai^-
=59	=59
4cc-	-ment,
[4cc-	bril-
=60	=60
8cc-]	|
8g-	-le
8.cc-	sur
16cc-	le
=61	=61
[2ff-	foin!
=62	=62
4ff-]}	|}
4r	.
=63	=63
*M3/4	*
2.r	.
=64	=64
2.r	.
=65	=65
4r	.
8r	.
{8cc-	{Dans
8b--	le
8b--	doux
=66	=66
4a-	re^ve
6f-	ou\
12g-	s'a-
12a-	-gi-
12g-	-te
12a-	ma
=67	=67
4b-	mie
8f	en-
8gn	-dor-
6an	-mie
12bn	en-
=68	=68
2.cc#}	-cor}
=69	=69
4r	.
{4.ee-	{Vi-
8dd-}	-te,}
=70	=70
4r	.
{4.ff	{vi-
8ee-}	-te,}
=71	=71
2.r	.
=72	=72
2.r	.
=73	=73
4r	.
{4.a-	{Car
8a-	voi-
=74	=74
[2.ff	-ci
=75	=75
4ff]	|
8a-	le
8cc	so-
4ff	-leil
=76	=76
[2.ff	d'or!
=77	=77
2.ff]}	|}
==	==
*-	*-
